assets/svg/smile.svg

<svg height="32" viewBox="0 0 1024 1024" width="32" xmlns="http://www.w3.org/2000/svg"><path d="m927.387 512.001c0-229.411-185.974-415.385-415.385-415.385s-415.386 185.974-415.386 415.385 185.974 415.386 415.385 415.386c95.255 0 185.647-32.183 258.617-90.308 8.753-6.972 10.197-19.721 3.224-28.474-6.972-8.753-19.721-10.197-28.474-3.224-65.858 52.459-147.368 81.48-233.367 81.48-207.029 0-374.86-167.831-374.86-374.86s167.83-374.86 374.86-374.86 374.86 167.831 374.86 374.86c0 70.983-19.742 139.005-56.449 197.925-5.917 9.498-3.014 21.995 6.484 27.913 9.498 5.917 21.995 3.014 27.913-6.484 40.684-65.303 62.578-140.74 62.578-219.354zm-557.225-10.131c27.977 0 50.657-22.68 50.657-50.657s-22.68-50.657-50.657-50.657-50.657 22.68-50.657 50.657c.001 27.977 22.68 50.657 50.657 50.657zm303.941 0c27.977 0 50.657-22.68 50.657-50.657s-22.68-50.657-50.657-50.657-50.657 22.68-50.657 50.657 22.68 50.657 50.657 50.657zm-291.27 218.449c35.192 28.153 81.425 44.966 139.3 44.966s104.108-16.812 139.3-44.966c21.51-17.208 34.638-34.713 40.925-47.286 5.005-10.009.948-22.181-9.062-27.185-10.009-5.005-22.181-.948-27.185 9.062-.745 1.489-2.808 4.888-6.318 9.568-6.136 8.182-13.986 16.444-23.676 24.196-28.129 22.503-65.479 36.085-113.984 36.085s-85.855-13.582-113.984-36.085c-9.69-7.752-17.54-16.015-23.676-24.196-3.51-4.68-5.574-8.079-6.318-9.568-5.005-10.009-17.176-14.066-27.185-9.062-10.009 5.005-14.066 17.176-9.062 27.185 6.286 12.574 19.415 30.078 40.925 47.286z" fill="#8a8a8a"/></svg>

<svg viewBox="0 0 1024 1024" version="1.1" xmlns="http://www.w3.org/2000/svg" width="32" height="32">
    <path
        d="M927.387 512.001c0-229.411-185.974-415.385-415.385-415.385S96.616 282.59 96.616 512.001 282.59 927.387 512.001 927.387c95.255 0 185.647-32.183 258.617-90.308 8.753-6.972 10.197-19.721 3.224-28.474-6.972-8.753-19.721-10.197-28.474-3.224C679.51 857.84 598 886.861 512.001 886.861c-207.029 0-374.86-167.831-374.86-374.86s167.83-374.86 374.86-374.86 374.86 167.831 374.86 374.86c0 70.983-19.742 139.005-56.449 197.925-5.917 9.498-3.014 21.995 6.484 27.913 9.498 5.917 21.995 3.014 27.913-6.484C905.493 666.052 927.387 590.615 927.387 512.001zM370.162 501.87c27.977 0 50.657-22.68 50.657-50.657 0-27.977-22.68-50.657-50.657-50.657-27.977 0-50.657 22.68-50.657 50.657C319.506 479.19 342.185 501.87 370.162 501.87zM674.103 501.87c27.977 0 50.657-22.68 50.657-50.657 0-27.977-22.68-50.657-50.657-50.657-27.977 0-50.657 22.68-50.657 50.657C623.446 479.19 646.126 501.87 674.103 501.87zM382.833 720.319c35.192 28.153 81.425 44.966 139.3 44.966 57.875 0 104.108-16.812 139.3-44.966 21.51-17.208 34.638-34.713 40.925-47.286 5.005-10.009 0.948-22.181-9.062-27.185-10.009-5.005-22.181-0.948-27.185 9.062-0.745 1.489-2.808 4.888-6.318 9.568-6.136 8.182-13.986 16.444-23.676 24.196-28.129 22.503-65.479 36.085-113.984 36.085s-85.855-13.582-113.984-36.085c-9.69-7.752-17.54-16.015-23.676-24.196-3.51-4.68-5.574-8.079-6.318-9.568-5.005-10.009-17.176-14.066-27.185-9.062-10.009 5.005-14.066 17.176-9.062 27.185C348.194 685.607 361.323 703.111 382.833 720.319z"
        fill="#8a8a8a" />
</svg>
